!!!!SEGMENT: Any1005a-Missa_Spes_salutis-Kyrie--s_Hertogenbosch_157.krn
!!!id: Any1005a
!!!OTL: Kyrie
!!!AGN: Mass; Kyrie
!!!voices: 4
!!!COM: Anonymous
!!!SMS: s Hertogenbosch 157
!!!OPR: Missa Spes salutis ('s-Hertogenbosch 157)
**kern	**kern	**kern	**kern
*part4	*part3	*part2	*part1
*staff4	*staff3	*staff2	*staff1
*I"Bassus	*I"Tenor	*I"Altus	*I"Superius
*I'B	*I'T	*I'A	*I'S
*clefF4	*clefGv2	*clefG2	*clefG2
*k[]	*k[]	*k[]	*k[]
*C:	*C:	*C:	*C:
*M2/1	*M2/1	*M2/1	*M2/1
*met(C|)	*met(C|)	*met(C|)	*met(C|)
!!section: Kyrie I
!!!OMD: Kyrie I
=1	=1	=1	=1
0r	0e	0r	0r
=2	=2	=2	=2
1r	1e	0r	0r
[1A	1f	.	.
=3	=3	=3	=3
1A]	1.e	0r	0r
1A	.	.	.
.	4d	.	.
.	4c	.	.
=4	=4	=4	=4
1B	1d	0r	1r
[1A	2.c	.	[1ee
.	4B	.	.
=5	=5	=5	=5
2A]	2c	0r	1ee]
4G	1d	.	.
4F	.	.	.
1E	.	.	1ee
.	2c#i	.	.
=6	=6	=6	=6
1D	2d	0a	1ff
.	4A	.	.
.	4B	.	.
[1A	4c	.	1ee
.	4d	.	.
.	[2e	.	.
=7	=7	=7	=7
1A]	2e]	1a	1cc
.	4d	.	.
.	4c	.	.
1G	2.g	1b	2dd
.	.	.	2ee
.	4f	.	.
=8	=8	=8	=8
1A	2e	1.a	2cc
.	2c	.	2.ee
1B	1d	.	.
.	.	.	4a
.	.	2g	[2dd
=9	=9	=9	=9
1A	1e	1a	2dd]
.	.	.	2cc#i
2D	2.d	2f	[1dd
2D	.	2f	.
.	4c	.	.
=10	=10	=10	=10
2G	4d	2g	0dd_
.	4e	.	.
2F	2f	2a	.
2G	2d	2b-i	.
2A	[2f	[2a	.
=11	=11	=11	=11
1B-i	2f]	2a]	1dd]
.	4e	2g	.
.	4d	.	.
1A	2e	[1a	1cc
.	2c	.	.
=12	=12	=12	=12
2r	1d	0a]	1r
1d	.	.	.
.	1A	.	1ee
2c	.	.	.
=13	=13	=13	=13
1d	2r	1b	1ff
.	2d	.	.
2A	4c	2cc	[1ee
.	4d	.	.
[2c	4e	4b	.
.	4f	4a	.
=14	=14	=14	=14
2c]	2e	2g	2ee]
4B	1f	1a	4dd
4A	.	.	4cc
1B	.	.	1dd
.	4e	2g	.
.	4d	.	.
=15	=15	=15	=15
2A	2e	1.a	2cc
2D	2f	.	4a
.	.	.	4b
2.A	2e	.	4cc
.	.	.	4dd
.	[2a	[2cc	2ee
4B	.	.	.
=16	=16	=16	=16
2c	2a]	4cc]	4ee
.	.	4b	4dd
2d	4g	4a	1dd
.	4f	4g	.
1A	1e	1a	.
.	.	.	2cc#i
=17	=17	=17	=17
2r	1d	2.f	2dd
2.D	.	.	1ff
.	.	4g	.
.	1r	1a	.
4E	.	.	.
4F	.	.	4ee
4G	.	.	4dd
=18	=18	=18	=18
4A	0e	2a	4cc
4B	.	.	4dd
1c	.	1g	1ee
4B	.	2a	[2dd
4A	.	.	.
=19	=19	=19	=19
2G	1e	2b	4dd]
.	.	.	4cc#i
2A	.	1a	2cc#i
1D	1f	.	1dd
.	.	4g	.
.	.	4f	.
=20	=20	=20	=20
[0E	2.e	2g	0b
.	.	1e	.
.	4f	.	.
.	2g	.	.
.	[2a	4d	.
.	.	4c	.
=21	=21	=21	=21
1E]	2a]	1B	1b
.	2g	.	.
2r	2a	1A	[1cc
[2A	4A	.	.
.	4B	.	.
=22	=22	=22	=22
2A]	4c	1e	2cc]
.	4A	.	.
2G	1d	.	2b
1A	.	1e	1a
.	2c	.	.
=23	=23	=23	=23
1D	2d	1f	2r
.	4A	.	2.a
.	4B	.	.
[1A	4c	1e	.
.	4d	.	4b
.	2e	.	4cc
.	.	.	4dd
=24	=24	=24	=24
1A]	2c	1a	2ee
.	2d	.	1dd
1A	1e	2r	.
.	.	[2a	2cc
=25	=25	=25	=25
1B	2d	2a]	1dd
.	2d	2g	.
2A	2e	[1a	2cc
4D	2d	.	4f
4E	.	.	4g
=26	=26	=26	=26
4F	2.c	1a]	4a
4G	.	.	4b
1A	.	.	1cc
.	4d	.	.
.	2e	1a	.
4G	[2f	.	4b
4F	.	.	4a
=27	=27	=27	=27
1G	2f]	1b	1g
.	2e	.	.
4F	1f	2a	1r
4G	.	.	.
4A	.	4g	.
4B	.	4f	.
=28	=28	=28	=28
4c	2r	2e	0a
4A	.	.	.
1d	2c	2f	.
.	2f	2d	.
2c	2e	2e	.
=29	=29	=29	=29
1d	2f	2d	1a
.	1d	2f	.
1G	.	1g	1b
.	4c	.	.
.	4B	.	.
=30	=30	=30	=30
1.A	1.c	1e	1a
.	.	2r	1ee
4G	4B	[2d	.
4F	4A	.	.
=31	=31	=31	=31
1E	1G	2d]	1ee
.	.	2c	.
1D	1A	2d	1ff
.	.	4A	.
.	.	4B	.
=32	=32	=32	=32
0r	0e	4c	1.ee
.	.	4d	.
.	.	4e	.
.	.	4f	.
.	.	4g	.
.	.	4e	.
.	.	[2a	4dd
.	.	.	4cc
=33	=33	=33	=33
1r	1e	2a]	1b
.	.	2g#i	.
2r	1f	[1a	2r
[2d	.	.	[2a
=34	=34	=34	=34
2d]	1e	2a]	4a]
.	.	.	4b
2c	.	2a	2cc
2B	2d	2f	2dd
[2A	2c	2a	2ee
=35	=35	=35	=35
2A]	2f	2cc	2a
2G	2g	2b	1dd
1A	1e	1a	.
.	.	.	2cc#i
=36	=36	=36	=36
4D	1f	0a	2dd
4E	.	.	.
4F	.	.	2a
4G	.	.	.
4A	[1e	.	4cc
4G	.	.	4b
4A	.	.	4cc
4B	.	.	4dd
=37	=37	=37	=37
2c	2e]	1a	2ee
2d	2d	.	2ff
1G	1g	1b	2ee
.	.	.	2dd
=38	=38	=38	=38
[0A	2e	[0a	2cc
.	1f	.	4a
.	.	.	4b
.	.	.	4cc
.	.	.	4dd
.	2e	.	[2ee
=39	=39	=39	=39
0A]	2f	0a]	2ee]
.	2g	.	1dd
.	1e	.	.
.	.	.	2cc#i
=40	=40	=40	=40
2.B-i	1d	1f	[0ddl
4A	.	.	.
2G	2r	2r	.
2F	[2f	[2a	.
=41	=41	=41	=41
1D	2f]	2a]	0dd_
.	2f	2a	.
1G	2g	2b	.
.	2g	2b	.
=42	=42	=42	=42
00D	00f	00a	00dd]
=43||	=43||	=43||	=43||
*M2/1	*M2/1	*M2/1	*M2/1
*met(C|)	*met(C|)	*met(C|)	*met(C|)
!!section: Christe
!!!OMD: Christe
0r	0r	0r	1cc
.	.	.	1dd
=44	=44	=44	=44
0r	1c	1r	1ee
.	1d	1f	2a
.	.	.	2dd
=45	=45	=45	=45
1r	1e	1g	2cc
.	.	.	2b
1F	2A	1a	2cc
.	2c	.	4b
.	.	.	4a
=46	=46	=46	=46
1G	4B	2d	1b
.	4A	.	.
.	1d	2g	.
1A	.	2f	[1a
.	2c	2e	.
=47	=47	=47	=47
2D	2d	2f	0a]
1A	2e	1c	.
.	2A	.	.
4G	[2d	2d	.
4F	.	.	.
=48	=48	=48	=48
1E	2d]	1e	1g
.	2c#i	.	.
1D	2d	1A	1r
.	[2a	.	.
=49	=49	=49	=49
2D	4a]	2.a	1.f
.	4g	.	.
1d	4f	.	.
.	4e	4g	.
.	1d	2f	.
4c	.	4e	2g
4B	.	4d	.
=50	=50	=50	=50
1A	2e	2c	1a
.	2f	2c	.
2.G	1g	1d	2d
.	.	.	[2g
4F	.	.	.
=51	=51	=51	=51
1E	1c	1e	2g]
.	.	.	4f
.	.	.	4e
1D	1d	2A	2f
.	.	2d	2f
=52	=52	=52	=52
1r	1e	2.c	1g
.	.	8dL	.
.	.	8eJ	.
1F	2A	1f	1a
.	2a	.	.
=53	=53	=53	=53
1G	2g	1r	2d
.	2f	.	1dd
1A	1e	1a	.
.	.	.	2cc#i
=54	=54	=54	=54
1.D	2d	2.f	[0dd
.	1f	.	.
.	.	4g	.
.	.	2a	.
2G	2g	2b-i	.
=55	=55	=55	=55
2F	2a	2a	0dd]
2G	2d	2g	.
1D	2.a	1f	.
.	8gL	.	.
.	8fJ	.	.
=56	=56	=56	=56
2r	2e	2g	2r
1F	2.f	1a	2cc
.	.	.	2a
.	4e	.	.
2G	[2d	4g	2b
.	.	4f	.
=57	=57	=57	=57
1A	2d]	1e	[0a
.	2c#i	.	.
1D	1d	2f	.
.	.	4e	.
.	.	4d	.
=58	=58	=58	=58
1r	1e	2.c	1a]
.	.	4d	.
2r	2A	2e	1a
[2F	2c	[2f	.
=59	=59	=59	=59
2F]	1d	2f]	2a
1G	.	2d	1b
.	1e	2a	.
[2A	.	2e	[2cc
=60	=60	=60	=60
2A]	2A	2c	4cc]
.	.	.	4b
2D	2d	2.f	4a
.	.	.	4g
1F	2c	.	1a
.	.	4e	.
.	2d	4d	.
.	.	4c	.
=61	=61	=61	=61
2G	0e	2B	2g
1A	.	2c	1cc
.	.	2A	.
4G	.	[2d	2dd
4F	.	.	.
=62	=62	=62	=62
1E	1e	2d]	1ee
.	.	2c#i	.
1D	1f	1d	2.a
.	.	.	4b
=63	=63	=63	=63
1.A	2e	2r	4cc
.	.	.	4dd
.	1c	1a	2.ee
.	.	.	4dd
2B	2d	2g	[2dd
=64	=64	=64	=64
1A	1e	1.a	2dd]
.	.	.	2cc
2D	2r	.	2.ff
[2F	[2f	2a	.
.	.	.	4ee
=65	=65	=65	=65
2F]	4f]	2a	4dd
.	4e	.	4cc
2G	1d	4g	2b
.	.	4f	.
1A	.	1e	[1a
.	2c#i	.	.
=66	=66	=66	=66
1D	0d	2r	1a]
.	.	1f	.
1B	.	.	1dd
.	.	2g	.
=67	=67	=67	=67
1A	0e	2.a	2.cc
.	.	4b	4dd
2r	.	4cc	4ee
.	.	4dd	4ff
[2c	.	[2cc	[2ee
=68	=68	=68	=68
2c]	2r	2cc]	2ee]
2d	2f	1b	1dd
1e	1g	.	.
.	.	4a	2cc#i
.	.	4g	.
=69	=69	=69	=69
2d	2.a	1.f	1dd
1D	.	.	.
.	4g	.	.
.	2f	.	2r
2E	2e	2g	2ee
=70	=70	=70	=70
2F	1c	1.a	4ee
.	.	.	4dd
1F	.	.	1cc
.	1d	.	.
2G	.	4g	2b
.	.	4f	.
=71	=71	=71	=71
1.A	2r	4e	4cc
.	.	4d	4b
.	1c	4c	4a
.	.	4B	4g
.	.	4c	1f
.	.	4A	.
4G	2d	[2d	.
4F	.	.	.
=72	=72	=72	=72
4E	4e	2d]	1g
4D	4f	.	.
2E	4g	2c#i	.
.	4e	.	.
1D	2.f	[1d	2r
.	.	.	[2f
.	4e	.	.
=73	=73	=73	=73
2r	2d	2d]	2f]
2G	4c	2e	2g
.	4B	.	.
2F	1A	2f	4a
.	.	.	4b
2A	.	[2e	4cc
.	.	.	4a
=74	=74	=74	=74
2G	2r	2e]	2b
2F	2c	1f	1a
1B-i	1d	.	.
.	.	4e	2g
.	.	4d	.
=75	=75	=75	=75
2A	2e	2c	1a
2F	1f	2c	.
1B-i	.	1d	2f
.	4e	.	2g
.	4d	.	.
=76	=76	=76	=76
2.A	1c	2e	0a
.	.	1c	.
4G	.	.	.
2F	1r	.	.
2D	.	2d	.
=77	=77	=77	=77
1.A	2r	1.e	1.a
.	1c	.	.
2B	2d	[2d	2g
=78	=78	=78	=78
1A	1e	2d]	1a
.	.	2c#i	.
1D	2.f	1d	4f
.	.	.	4g
.	.	.	4a
.	4g	.	4b
=79	=79	=79	=79
2r	1.a	1c	1.cc
1F	.	.	.
.	.	2.f	.
2G	2g	.	2b
.	.	4e	.
=80	=80	=80	=80
1A	2e	2c	1a
.	2f	1f	.
1B-i	1d	.	1dd
.	.	2g	.
=81	=81	=81	=81
2A	2r	2.a	1cc
1F	1c	.	.
.	.	4b	.
.	.	2cc	1r
2F	2d	4b	.
.	.	4a	.
=82	=82	=82	=82
2.c	1e	1g	2r
.	.	.	1cc
4B	.	.	.
2A	1f	1a	.
2F	.	.	2dd
=83	=83	=83	=83
1c	1e	2.g	1ee
.	.	4f	.
2r	2r	2e	2.cc
[2F	2c	[2A	.
.	.	.	4b
=84	=84	=84	=84
2F]	2d	2A]	2a
2G	1e	2.B	2g
1A	.	.	2e
.	.	4c	.
.	[2c	4d	[2cc
.	.	4e	.
=85	=85	=85	=85
1F	2c]	1f	4cc]
.	.	.	4b
.	2d	.	2a
2G	1e	2e	2g
[2A	.	2c	2e
=86	=86	=86	=86
2A]	1c	2e	2.cc
1F	.	1f	.
.	.	.	4b
.	2d	.	2a
2G	[2e	4e	2g
.	.	4d	.
=87	=87	=87	=87
1A	2e]	1c	2e
.	1f	.	1a
1B-i	.	1d	.
.	4e	.	2g
.	4d	.	.
=88	=88	=88	=88
1A	2e	1c	[0al
.	1c	.	.
1r	.	1r	.
.	2d	.	.
=89	=89	=89	=89
2.A	1e	2r	0a_
.	.	1c	.
4G	.	.	.
2F	1f	.	.
2D	.	2d	.
=90	=90	=90	=90
1.A	2e	1e	0a_
.	1c	.	.
.	.	1f	.
2D	2d	.	.
=91	=91	=91	=91
2.A	1e	2e	0a_
.	.	1c	.
4G	.	.	.
2F	1f	.	.
2D	.	2d	.
=92	=92	=92	=92
1A	2e	1e	0a_
.	2c	.	.
1D	1d	1f	.
=93	=93	=93	=93
00A	00c	00e	00a]
=94||	=94||	=94||	=94||
*M2/1	*M2/1	*M2/1	*M2/1
*met(C|)	*met(C|)	*met(C|)	*met(C|)
!!section: Kyrie II
!!!OMD: Kyrie II
1D	1r	0r	0r
4F	1A	.	.
4E	.	.	.
4F	.	.	.
4G	.	.	.
=95	=95	=95	=95
0A	4c	0r	0r
.	4B	.	.
.	4c	.	.
.	4d	.	.
.	2e	.	.
.	[2f	.	.
=96	=96	=96	=96
1G	2f]	0r	0r
.	2e	.	.
2F	2f	.	.
[2G	[2e	.	.
=97	=97	=97	=97
4G]	4e]	0r	0r
4F	4d	.	.
4E	1d	.	.
4D	.	.	.
1E	.	.	.
.	2c#i	.	.
=98	=98	=98	=98
1D	2d	1d	1r
.	2.a	.	.
2r	.	4f	1a
.	4g	4e	.
[2F	4f	4f	.
.	4e	4g	.
=99	=99	=99	=99
4F]	1f	0a	4cc
4G	.	.	4b
4A	.	.	4cc
4B	.	.	4dd
2c	2e	.	2ee
2A	2c	.	[2ff
=100	=100	=100	=100
2B	2d	1g	2ff]
2c	2.c	.	2ee
2F	.	2f	2ff
.	4d	.	.
2c	4e	[2g	[2ee
.	4f	.	.
=101	=101	=101	=101
2G	2.g	4g]	4ee]
.	.	4f	4dd
2B	.	4e	1dd
.	8fL	4d	.
.	8gJ	.	.
1A	2a	1e	.
.	2e	.	2cc#i
=102	=102	=102	=102
1D	4f	2d	0dd
.	4e	.	.
.	4f	2d	.
.	4g	.	.
2r	1a	4f	.
.	.	4e	.
2D	.	4f	.
.	.	4g	.
=103	=103	=103	=103
4F	2r	0a	1r
4E	.	.	.
4F	2A	.	.
4G	.	.	.
1A	4c	.	2r
.	4B	.	.
.	4c	.	2a
.	4d	.	.
=104	=104	=104	=104
2.A	2e	2r	4cc
.	.	.	4b
.	2a	2.cc	4cc
4B	.	.	4dd
2c	2g	.	2ee
.	.	4b	.
2d	2f	4b	[2ff
.	.	4a	.
=105	=105	=105	=105
1c	1g	1.cc	2ff]
.	.	.	2ee
2F	2a	.	2ff
2G	2g	2b	[2ee
=106	=106	=106	=106
2A	2f	2a	4ee]
.	.	.	4dd
2B-i	4e	2g	1dd
.	4d	.	.
1A	1e	1a	.
.	.	.	2cc#i
=107	=107	=107	=107
[0D	1d	2r	[0dd
.	.	2d	.
.	2r	4f	.
.	.	4e	.
.	2d	4f	.
.	.	4g	.
=108	=108	=108	=108
1D]	4f	2a	0dd]
.	4e	.	.
.	4f	2d	.
.	4g	.	.
2r	1a	4f	.
.	.	4e	.
2D	.	4f	.
.	.	4g	.
=109	=109	=109	=109
4F	2r	1a	0r
4E	.	.	.
4F	2A	.	.
4G	.	.	.
1A	4c	2a	.
.	4B	.	.
.	4c	[2cc	.
.	4d	.	.
=110	=110	=110	=110
2A	2e	4cc]	0r
.	.	4b	.
4F	1f	1a	.
4G	.	.	.
4A	.	.	.
4B	.	.	.
2c	2e	2g	.
=111	=111	=111	=111
2F	2f	2a	0r
2c	1e	2g	.
2d	.	2f	.
2B	[2d	4e	.
.	.	4d	.
=112	=112	=112	=112
1A	2d]	1e	1ee
.	2c#i	.	.
2D	1d	1d	1ff
2d	.	.	.
=113	=113	=113	=113
2c	1r	2r	2ee
4B	.	2a	2cc
4A	.	.	.
1G	2r	1b-i	1dd
.	2d	.	.
=114	=114	=114	=114
1r	1f	2a	2.cc
.	.	2f	.
.	.	.	8bL
.	.	.	8aJ
2r	2e	2g	2b
2A	2c	[2f	[2a
=115	=115	=115	=115
1B-i	1d	2f]	2a]
.	.	4e	2g
.	.	4d	.
2A	2c	2e	2a
2F	[2f	[2d	2a
=116	=116	=116	=116
1G	2f]	2d]	1b
.	2e	4c	.
.	.	4B	.
1F	2.f	2c	2a
.	.	2d	2f
.	8eL	.	.
.	8dJ	.	.
=117	=117	=117	=117
2r	2c	2e	1g
2G	2G	2.d	.
1B-i	1d	.	2f
.	.	4e	.
.	.	4f	2d
.	.	4g	.
=118	=118	=118	=118
2A	2c	2a	2e
2F	1d	2a	2f
1G	.	1b-i	2d
.	4c	.	2dd
.	4B	.	.
=119	=119	=119	=119
1F	2c	2a	1ff
.	2d	2f	.
2r	1e	2g	2ee
2A	.	2a	2cc
=120	=120	=120	=120
1B-i	1d	2f	1dd
.	.	4e	.
.	.	4d	.
2A	2r	2e	1cc
2F	2a	[2f	.
=121	=121	=121	=121
1G	1b-i	2f]	1r
.	.	2e	.
2F	2a	1f	2r
2D	2f	.	2a
=122	=122	=122	=122
1G	2.g	2e	1b-i
.	.	1d	.
.	4f	.	.
1A	1e	.	[1a
.	.	2c#i	.
=123	=123	=123	=123
1D	1f	2d	2a]
.	.	2d	2f
2r	2e	2e	2.g
2G	[2d	2g	.
.	.	.	8fL
.	.	.	8eJ
=124	=124	=124	=124
1B-i	4d]	1f	4d
.	4c	.	4e
.	4d	.	4f
.	4e	.	4g
2A	2f	2r	4a
.	.	.	4b
2F	2a	2a	4cc
.	.	.	4dd
=125	=125	=125	=125
1G	2g	1b-i	2ee
.	2f	.	1dd
1A	1e	[1a	.
.	.	.	2cc#i
=126	=126	=126	=126
1D	1f	2a]	2dd
.	.	2f	2a
1r	2e	2g	1cc
.	2c	[2a	.
=127	=127	=127	=127
2r	2d	4a]	2b
.	.	4f	.
2E	2e	2g	2g
1F	4A	2c	1a
.	4B	.	.
.	4c	2A	.
.	4d	.	.
=128	=128	=128	=128
2E	4e	1c	1g
.	4f	.	.
2C	4g	.	.
.	4e	.	.
2D	2f	2B	1r
2E	[2e	2G	.
=129	=129	=129	=129
1F	2e]	1A	1r
.	1d	.	.
1E	.	1G	1ee
.	2c#i	.	.
=130	=130	=130	=130
1D	1d	0A	1ff
2r	1e	.	2ee
2A	.	.	2cc
=131	=131	=131	=131
2B-i	2d	2r	2dd
2A	1a	2e	2ee
4F	.	1f	2cc
4G	.	.	.
4A	2a	.	2dd
4Bny	.	.	.
=132	=132	=132	=132
1c	1g	2e	2ee
.	.	2c	4a
.	.	.	4b
1r	2f	2d	4cc
.	.	.	4dd
.	2g	2e	4ee
.	.	.	4ff
=133	=133	=133	=133
1r	0a	1f	4gg
.	.	.	4ee
.	.	.	2ff
1A	.	1e	1ee
=134	=134	=134	=134
2B-i	2r	2d	1dd
2A	2e	1a	.
4F	1f	.	2cc
4G	.	.	.
4A	.	2a	2dd
4Bny	.	.	.
=135	=135	=135	=135
1c	2e	1g	2ee
.	2c	.	4g
.	.	.	4a
2F	2d	2f	4b
.	.	.	4cc
2c	2e	[2a	4dd
.	.	.	4ee
=136	=136	=136	=136
2d	2f	2a]	4ff
.	.	.	4dd
2G	2g	2b-i	2ee
1A	1e	1a	2.dd
.	.	.	4cc
=137	=137	=137	=137
2D	0d	2f	2.dd
2D	.	2a	.
.	.	.	4cc
1G	.	1b-i	4cc
.	.	.	8b-iL
.	.	.	8ccJ
.	.	.	[2ddl
=138	=138	=138	=138
1D	2r	2a	0dd_
.	2a	2f	.
1r	1b-i	1g	.
=139	=139	=139	=139
2.d	2a	2f	0dd_
.	2f	2a	.
4d	.	.	.
2G	1g	1b-i	.
2G	.	.	.
=140	=140	=140	=140
*^	*	*	*
00Dl\	00d/	00fl	00al	00dd]
*v	*v	*	*	*
==	==	==	==
*-	*-	*-	*-
!!!system-decoration: [*]
!!!RDF**kern: i = editorial accidental
!!!RDF**kern: l = terminal long
!!!ENC: Lance Morrison
!!!END: 2025/10/21
!!!EED: Benjamin Ory
!!!EEV: 2025/10/21
!!!YEC: Copyright 2025 Benjamin Ory, All Rights Reserved
!!!ONB: Translated from MusicXML on 2025/10/21
!!!verovio: header encoded
!!!header-left: Edited by @{ENC} (2025)\n
!!!header-right:
!!!header-center:
